logos/mockflow.svg

<?xml version="1.0" encoding="UTF-8"?>
<svg width="512px" height="77px" viewBox="0 0 512 77" version="1.1" xmlns="http://www.w3.org/2000/svg" xmlns:xlink="http://www.w3.org/1999/xlink" preserveAspectRatio="xMidYMid">
    <title>MockFlow</title>
    <g>
        <path d="M157.264272,32.5792258 L156.836536,32.5792258 L143.719298,70.2199944 L135.021999,70.2199944 L121.904762,32.5792258 L121.548315,32.5792258 L118.482874,70.5764411 L103.86856,70.5764411 L109.642996,6.48732943 L125.184071,6.48732943 L139.370649,43.486494 L153.557226,6.48732943 L169.098301,6.48732943 L174.872737,70.5764411 L160.258424,70.5764411 L157.264272,32.5792258 Z M201.962684,29.5850738 C215.151211,29.5850738 225.773322,38.2823726 225.773322,50.6867168 C225.773322,62.9484823 215.721526,71.7170705 201.962684,71.7170705 C187.562239,71.7170705 177.938179,62.9484823 177.938179,50.6867168 C177.938179,38.2823726 188.489,29.5850738 201.962684,29.5850738 Z M201.820106,60.0256196 C207.166806,60.0256196 211.087719,56.1759955 211.087719,50.6867168 C211.087719,45.197438 206.952938,41.2765246 201.820106,41.2765246 C196.615984,41.2765246 192.481203,45.197438 192.481203,50.6867168 C192.552492,56.1047062 196.259538,60.0256196 201.820106,60.0256196 Z M243.880813,50.6154275 C243.880813,56.1047062 248.158173,60.4533556 253.362295,60.4533556 C254.998979,60.4533556 256.389925,60.1629382 257.473234,59.8120172 L257.805033,59.699457 C257.965748,59.6424394 258.11863,59.5845168 258.263436,59.5265943 L258.542209,59.4110173 L258.542209,59.4110173 L258.799014,59.2970492 L258.799014,59.2970492 L259.033417,59.1862991 L259.033417,59.1862991 L259.244985,59.0803758 C259.278319,59.0632136 259.310684,59.0463195 259.34207,59.0297271 L259.597884,58.8894458 L259.597884,58.8894458 L259.854245,58.7371309 L259.854245,58.7371309 L260.063492,58.5998329 L260.063492,58.5998329 L264.697299,68.1526037 L264.487051,68.3057644 L264.487051,68.3057644 L264.258892,68.4592498 L264.258892,68.4592498 L264.033496,68.6024404 L264.033496,68.6024404 L263.761647,68.7662587 L263.761647,68.7662587 L263.443407,68.9476106 L263.443407,68.9476106 L263.205503,69.0767247 L263.205503,69.0767247 L262.947028,69.2113396 L262.947028,69.2113396 L262.667998,69.3505384 L262.667998,69.3505384 L262.368431,69.4934043 L262.368431,69.4934043 L262.048348,69.6390206 L262.048348,69.6390206 L261.707764,69.7864704 L261.707764,69.7864704 L261.3467,69.9348371 L261.3467,69.9348371 L260.965173,70.0832037 L260.965173,70.0832037 L260.563202,70.2306536 C260.425806,70.2795489 260.285006,70.3281386 260.140805,70.3762699 L259.698,70.5191358 C259.320498,70.6367901 258.921756,70.7506245 258.501824,70.8582514 L257.987737,70.9842714 L257.987737,70.9842714 L257.453324,71.1034155 C255.728856,71.4688505 253.698939,71.7170705 251.366193,71.7170705 C239.88861,71.7170705 229.2665,62.3781676 229.2665,50.7580061 C229.2665,38.9952659 239.746032,29.5137845 251.366193,29.5137845 C254.393549,29.5137845 256.910882,29.9485571 258.912467,30.5203129 L259.382942,30.6600119 L259.382942,30.6600119 L259.833595,30.8040562 C260.053963,30.8770123 260.266891,30.9512548 260.472369,31.0262691 L260.873389,31.1771745 C260.938569,31.2024461 261.002921,31.2277654 261.066444,31.2531132 L261.437631,31.4053909 L261.437631,31.4053909 L261.788908,31.5574398 C261.845794,31.5827114 261.90185,31.6079353 261.957075,31.6330926 L262.278454,31.7830832 L262.278454,31.7830832 L262.579878,31.9305581 C262.628452,31.9548768 262.676193,31.9790525 262.723102,32.0030662 L262.994562,32.1450523 L262.994562,32.1450523 L263.36425,32.3487403 L263.36425,32.3487403 L263.688883,32.5385346 L263.688883,32.5385346 L263.968401,32.7113478 L263.968401,32.7113478 L264.202744,32.8640924 L264.202744,32.8640924 L264.492768,33.0656839 L264.492768,33.0656839 L264.697299,33.2208299 L264.697299,33.2208299 L260.063492,42.631022 L259.854245,42.493724 L259.854245,42.493724 L259.67116,42.3836108 L259.67116,42.3836108 L259.34207,42.2011278 L259.34207,42.2011278 L259.142082,42.0982214 L259.142082,42.0982214 L258.919043,41.9896836 C258.879973,41.971214 258.83996,41.9525769 258.799014,41.9338057 L258.542209,41.8198377 L258.542209,41.8198377 L258.263436,41.7042607 C258.11863,41.6463381 257.965748,41.5884155 257.805033,41.5313979 L257.473234,41.4188377 C256.389925,41.0679167 254.998979,40.7774993 253.362295,40.7774993 C248.158173,40.8487886 243.880813,45.197438 243.880813,50.6154275 Z M296.848789,49.7599554 L317.665274,70.5764411 L299.91423,70.5764411 L284.016708,54.6789195 L284.016708,70.5764411 L270.257867,70.5764411 L270.257867,3.77833473 L284.016708,3.77833473 L284.016708,44.6271234 L297.989418,30.7257031 L315.811752,30.7257031 L296.848789,49.7599554 Z M357.587302,19.3194096 L335.131161,19.3194096 L335.131161,32.0802005 L355.876358,32.0802005 L355.876358,44.9122807 L335.131161,44.9122807 L335.131161,70.6477304 L320.516848,70.6477304 L320.516848,6.48732943 L357.587302,6.48732943 L357.587302,19.3194096 Z M364.573656,3.77833473 L378.332498,3.77833473 L378.332498,70.5764411 L364.573656,70.5764411 L364.573656,3.77833473 Z M408.773044,29.5850738 C421.961571,29.5850738 432.583681,38.2823726 432.583681,50.6867168 C432.583681,62.9484823 422.531885,71.7170705 408.773044,71.7170705 C394.372598,71.7170705 384.748538,62.9484823 384.748538,50.6867168 C384.748538,38.2823726 395.29936,29.5850738 408.773044,29.5850738 Z M448.196046,30.7257031 L457.891395,52.2550821 L467.444166,30.7257031 L476.925647,30.7257031 L486.478418,52.2550821 L496.173768,30.7257031 L512,30.7257031 L490.6132,70.5764411 L481.274297,70.5764411 L472.077973,49.9738234 L462.881649,70.5764411 L453.756614,70.5764411 L432.369813,30.7257031 L448.196046,30.7257031 Z M408.701754,41.2765246 C403.497633,41.2765246 399.362852,45.197438 399.362852,50.6867168 C399.362852,56.1047062 403.069897,60.0256196 408.701754,60.0256196 C414.048454,60.0256196 417.969368,56.1759955 417.969368,50.6867168 C417.969368,45.197438 413.834586,41.2765246 408.701754,41.2765246 Z" fill="#111111"></path>
        <g>
            <polygon fill="#7957FF" points="51.3283208 53.4670008 76.9924812 35.4307992 51.3283208 35.4307992"></polygon>
            <polygon fill="#1B7CE2" points="31.5811752 29.5137845 18.1787803 49.5460874 17.1094403 51.2570315 17.0381509 51.2570315 0 76.9924812 0 0"></polygon>
            <polygon fill="#7957FF" points="76.9924812 17.1094403 51.3283208 17.1094403 51.3283208 -1.26635297e-15 89.8245614 -1.26635297e-15"></polygon>
            <polygon fill="#F845C6" points="51.3283208 0 51.3283208 76.9924812 17.1094403 51.2570315 18.1787803 49.5460874 31.5811752 29.5137845"></polygon>
        </g>
    </g>
</svg>

<svg preserveAspectRatio="xMidYMid" viewBox="0 0 512 77" xmlns="http://www.w3.org/2000/svg">
  <path fill="#111" d="M157.264 32.58h-.427l-13.118 37.64h-8.697l-13.117-37.64h-.357l-3.065 37.996h-14.614l5.774-64.089h15.541l14.187 37 14.186-37h15.541l5.775 64.09h-14.615l-2.994-37.998Zm44.699-2.995c13.188 0 23.81 8.697 23.81 21.102 0 12.261-10.051 21.03-23.81 21.03-14.4 0-24.025-8.769-24.025-21.03 0-12.405 10.551-21.102 24.025-21.102Zm-.143 30.44c5.347 0 9.268-3.849 9.268-9.338 0-5.49-4.135-9.41-9.268-9.41-5.204 0-9.339 3.92-9.339 9.41.071 5.418 3.779 9.339 9.34 9.339Zm42.06-9.41c0 5.49 4.278 9.838 9.482 9.838 1.637 0 3.028-.29 4.111-.641l.332-.113c.16-.057.314-.114.458-.172l.28-.116.256-.114.234-.11.212-.107.097-.05.256-.14.256-.153.21-.137 4.633 9.553-.21.153-.228.153-.226.143-.271.164-.319.182-.237.129-.259.134-.279.14-.3.142-.32.146-.34.147-.361.149-.382.148-.402.148a22.63 22.63 0 0 1-.422.145l-.443.143a24.41 24.41 0 0 1-1.196.34l-.514.125-.535.12a29.322 29.322 0 0 1-6.087.613c-11.477 0-22.1-9.339-22.1-20.959 0-11.763 10.48-21.244 22.1-21.244 3.028 0 5.545.435 7.546 1.006l.47.14.452.144c.22.073.433.147.638.222l.401.151c.066.025.13.05.193.076l.372.152.35.152.17.076.32.15.302.148.143.072.272.142.37.204.324.19.28.172.234.153.29.202.204.155-4.634 9.41-.209-.137-.183-.11-.329-.183-.2-.103-.223-.108-.12-.056-.257-.114-.279-.116a12.38 12.38 0 0 0-.458-.173l-.332-.112a13.333 13.333 0 0 0-4.11-.642c-5.205.072-9.482 4.42-9.482 9.838Zm52.969-.855 20.816 20.816h-17.75L284.016 54.68v15.897h-13.76V3.778h13.76v40.85l13.972-13.902h17.823L296.849 49.76Zm60.738-30.44h-22.456v12.76h20.745v12.832h-20.745v25.736h-14.614V6.488h37.07v12.831Zm6.987-15.542h13.758v66.798h-13.758V3.778Zm44.199 25.807c13.189 0 23.81 8.697 23.81 21.102 0 12.261-10.051 21.03-23.81 21.03-14.4 0-24.024-8.769-24.024-21.03 0-12.405 10.55-21.102 24.024-21.102Zm39.423 1.14 9.695 21.53 9.553-21.53h9.482l9.552 21.53 9.696-21.53H512l-21.387 39.851h-9.339l-9.196-20.602-9.196 20.602h-9.125l-21.387-39.85h15.826Zm-39.494 10.552c-5.204 0-9.34 3.92-9.34 9.41 0 5.418 3.708 9.339 9.34 9.339 5.346 0 9.267-3.85 9.267-9.34 0-5.489-4.134-9.41-9.267-9.41Z"/>
  <path fill="#7957FF" d="m51.328 53.467 25.664-18.036H51.328z"/>
  <path fill="#1B7CE2" d="M31.581 29.514 18.18 49.546l-1.07 1.711h-.07L0 76.992V0z"/>
  <path fill="#7957FF" d="M76.992 17.11H51.328V0h38.497z"/>
  <path fill="#F845C6" d="M51.328 0v76.992L17.11 51.257l1.07-1.71 13.4-20.034z"/>
</svg>
